;FLAVOR:Marlin
;TIME:9516
;Filament used: 9.2089m
;Layer height: 0.1
;MINX:29.312
;MINY:19.852
;MINZ:0.1
;MAXX:170.444
;MAXY:76.806
;MAXZ:18.88
;TARGET_MACHINE.NAME:Anycubic i3 Mega S/Pro
;POSTPROCESSED
;  [CreateThumbnail]
;Generated with Cura_SteamEngine 5.8.1
;
;

M140 S65
M105
M190 S65
M104 S210
M105
M109 S210
M82 ;absolute extrusion mode
M300 S2637 P150
M300 S2637 P150
M300 S2637 P150
M300 S2093 P150
M300 S2637 P150
M300 S3135 P150
M300 S0 P150
M300 S1567 P150

G21 ;valori metrici
G90 ;absolute positioning
M82 ;imposta estrusore in absolute mode
M107 ;inizia con ventole off
G28 X0 Y0 Z0 ;muove X/Y/Z fino agli endstop
G0 Z0.15 ;inizio spurgo
G92 E0
G1 X40 E25 F500 ;estrude 25mm di materiale in 40mm di linea, riduci la velocità (F feed) se hai un nozzle inferiore a 0.4mm
G92 E0
G1 E-1 F500
G1 X80 F4000 ;fine spurgo con un movimento repentino
M117 Printing…
G5
G92 E0
G92 E0
G1 F1800 E-7
;LAYER_COUNT:103
;LAYER:0
M107
M204 S3000
M205 X10 Y10
G1 F480 Z0.175
G0 F7800 X30.795 Y23.395 Z0.175
M204 S1500
M205 X12 Y12
;TYPE:SKIRT
G1 F480 Z0.1
G1 F1800 E0
G1 X31.329 Y22.735 E0.0216
G1 X31.77 Y22.264 E0.03802
G1 X32.321 Y21.747 E0.05724
G1 X33.013 Y21.233 E0.07918
G1 X33.813 Y20.767 E0.10273
G1 X34.482 Y20.468 E0.12138
G1 X35.31 Y20.184 E0.14365
G1 X36.046 Y19.985 E0.16305
G1 X36.863 Y19.871 E0.18404
G1 X38.075 Y19.852 E0.21488
G1 X94.202 Y19.852 E1.64298
G1 X95.034 Y19.865 E1.66415
G1 X95.627 Y19.907 E1.67927
G1 X96.72 Y20.047 E1.70731
G1 X99.377 Y20.348 E1.77535
G1 X102.044 Y20.576 E1.84346
G1 X104.71 Y20.726 E1.9114
G1 X107.392 Y20.802 E1.97966
G1 X108.739 Y20.812 E2.01394
G1 X161.732 Y20.813 E3.36229
G1 X162.489 Y20.825 E3.38156
G1 X163.241 Y20.886 E3.40075
G1 X164.099 Y21.052 E3.42299
G1 X164.8 Y21.248 E3.44151
G1 X165.512 Y21.547 E3.46116
G1 X166.028 Y21.81 E3.47589
G1 X166.567 Y22.11 E3.49159
G1 X167.116 Y22.46 E3.50816
G1 X167.729 Y22.967 E3.5284
G1 X168.165 Y23.425 E3.54449
G1 X168.749 Y24.114 E3.56747
G1 X169.285 Y24.883 E3.59132
G1 X169.76 Y25.801 E3.61762
G1 X170.118 Y26.782 E3.64419
G1 X170.326 Y27.799 E3.6706
G1 X170.443 Y28.884 E3.69837
G1 X170.444 Y64.702 E4.60972
G1 X170.433 Y65.472 E4.62931
G1 X170.372 Y66.23 E4.64866
G1 X170.2 Y67.059 E4.6702
G1 X169.816 Y68.15 E4.69963
G1 X169.563 Y68.75 E4.7162
G1 X169.112 Y69.544 E4.73944
G1 X168.282 Y70.582 E4.77325
G1 X167.666 Y71.225 E4.79591
G1 X167.163 Y71.638 E4.81247
G1 X166.553 Y72.029 E4.8309
G1 X166.01 Y72.329 E4.84669
G1 X165.52 Y72.581 E4.86071
G1 X164.854 Y72.87 E4.87918
G1 X164.151 Y73.081 E4.89786
G1 X163.286 Y73.232 E4.9202
G1 X162.481 Y73.315 E4.94079
G1 X109.558 Y73.32 E6.28736
G1 X106.885 Y73.358 E6.35538
G1 X104.241 Y73.47 E6.42271
G1 X101.563 Y73.66 E6.49102
G1 X98.92 Y73.921 E6.5586
G1 X96.304 Y74.257 E6.62571
G1 X93.647 Y74.674 E6.69414
G1 X91.035 Y75.16 E6.76174
G1 X88.438 Y75.717 E6.82932
G1 X85.706 Y76.388 E6.9009
G1 X84.85 Y76.612 E6.92341
G1 X84.146 Y76.747 E6.94165
G1 X83.409 Y76.806 E6.96047
G1 X70.161 Y76.805 E7.29755
G1 X69.456 Y76.795 E7.31549
G1 X68.691 Y76.733 E7.33502
G1 X67.888 Y76.56 E7.35592
G1 X65.104 Y75.748 E7.4297
G1 X62.523 Y75.076 E7.49756
G1 X59.898 Y74.471 E7.56611
G1 X57.307 Y73.95 E7.63335
G1 X54.692 Y73.501 E7.70086
G1 X52.056 Y73.126 E7.76861
G1 X49.415 Y72.824 E7.83624
G1 X46.732 Y72.596 E7.90475
G1 X44.131 Y72.447 E7.97104
G1 X41.42 Y72.37 E8.04005
G1 X38.013 Y72.359 E8.12674
G1 X37.261 Y72.345 E8.14587
G1 X36.347 Y72.251 E8.16925
G1 X35.773 Y72.143 E8.18411
G1 X35.027 Y71.948 E8.20373
G1 X34.272 Y71.638 E8.2245
G1 X33.739 Y71.367 E8.23971
G1 X33.238 Y71.09 E8.25428
G1 X32.624 Y70.694 E8.27287
G1 X32.027 Y70.193 E8.2927
G1 X31.636 Y69.816 E8.30652
G1 X31.196 Y69.337 E8.32307
G1 X30.685 Y68.631 E8.34524
G1 X30.26 Y67.895 E8.36687
G1 X29.935 Y67.23 E8.3857
G1 X29.63 Y66.278 E8.41114
G1 X29.477 Y65.603 E8.42875
G1 X29.338 Y64.72 E8.45149
G1 X29.312 Y63.316 E8.48722
G1 X29.312 Y28.579 E9.37107
G1 X29.321 Y27.911 E9.38807
G1 X29.386 Y27.036 E9.41039
G1 X29.707 Y25.668 E9.44614
G1 X29.937 Y24.985 E9.46448
G1 X30.328 Y24.152 E9.4879
G1 X30.795 Y23.395 E9.51053
M204 S3000
M205 X10 Y10
G0 F7800 X31.306 Y23.71
M204 S1500
M205 X12 Y12
G1 F1800 X31.767 Y23.145 E9.52908
G1 X32.208 Y22.674 E9.5455
G1 X32.681 Y22.227 E9.56206
G1 X33.317 Y21.75 E9.58228
G1 X34.059 Y21.314 E9.60418
G1 X34.677 Y21.036 E9.62142
G1 X35.505 Y20.752 E9.6437
G1 X36.133 Y20.579 E9.66027
G1 X36.872 Y20.471 E9.67927
G1 X38.084 Y20.452 E9.71012
G1 X94.193 Y20.452 E11.13775
G1 X94.992 Y20.464 E11.15809
G1 X95.585 Y20.506 E11.17321
G1 X96.652 Y20.643 E11.20058
G1 X99.326 Y20.946 E11.26906
G1 X101.994 Y21.174 E11.33719
G1 X104.693 Y21.326 E11.40597
G1 X107.375 Y21.402 E11.47424
G1 X108.735 Y21.412 E11.50884
G1 X161.722 Y21.413 E12.85704
G1 X162.479 Y21.425 E12.87631
G1 X163.128 Y21.475 E12.89287
G1 X163.941 Y21.631 E12.91393
G1 X164.569 Y21.802 E12.93049
G1 X165.24 Y22.082 E12.94899
G1 X165.737 Y22.335 E12.96318
G1 X166.244 Y22.616 E12.97793
G1 X166.793 Y22.966 E12.9945
G1 X167.295 Y23.381 E13.01107
G1 X167.707 Y23.813 E13.02626
G1 X168.291 Y24.502 E13.04924
G1 X168.753 Y25.161 E13.06972
G1 X169.196 Y26.007 E13.09402
G1 X169.554 Y26.988 E13.12059
G1 X169.73 Y27.865 E13.14335
G1 X169.843 Y28.884 E13.16943
G1 X169.844 Y64.693 E14.08056
G1 X169.833 Y65.463 E14.10015
G1 X169.784 Y66.112 E14.11671
G1 X169.634 Y66.86 E14.13612
G1 X169.263 Y67.917 E14.16463
G1 X169.01 Y68.517 E14.18119
G1 X168.616 Y69.203 E14.20132
G1 X167.813 Y70.207 E14.23403
G1 X167.285 Y70.761 E14.25351
G1 X166.782 Y71.174 E14.27007
G1 X166.263 Y71.504 E14.28571
G1 X165.735 Y71.796 E14.30107
G1 X165.278 Y72.032 E14.31415
G1 X164.682 Y72.295 E14.33073
G1 X163.979 Y72.506 E14.3494
G1 X163.224 Y72.635 E14.36889
G1 X162.419 Y72.718 E14.38948
G1 X109.549 Y72.72 E15.73471
G1 X106.876 Y72.758 E15.80273
G1 X104.209 Y72.871 E15.87065
G1 X101.504 Y73.063 E15.93965
G1 X98.855 Y73.325 E16.00738
G1 X96.211 Y73.664 E16.0752
G1 X93.548 Y74.082 E16.14379
G1 X90.909 Y74.573 E16.21209
G1 X88.306 Y75.131 E16.27982
G1 X85.563 Y75.806 E16.3517
G1 X84.734 Y76.023 E16.3735
G1 X84.096 Y76.149 E16.39005
G1 X83.409 Y76.206 E16.40759
G1 X70.17 Y76.205 E16.74444
G1 X69.465 Y76.195 E16.76238
G1 X68.816 Y76.146 E16.77894
G1 X68.056 Y75.984 E16.79871
G1 X65.255 Y75.167 E16.87295
G1 X62.664 Y74.492 E16.94108
G1 X60.033 Y73.886 E17.00977
G1 X57.416 Y73.36 E17.07769
G1 X54.777 Y72.907 E17.14582
G1 X52.141 Y72.532 E17.21357
G1 X49.466 Y72.226 E17.28207
G1 X46.783 Y71.998 E17.35059
G1 X44.148 Y71.847 E17.41774
G1 X41.437 Y71.77 E17.48675
G1 X38.022 Y71.759 E17.57364
G1 X37.322 Y71.748 E17.59145
G1 X36.408 Y71.654 E17.61483
G1 X35.886 Y71.554 E17.62835
G1 X35.255 Y71.393 E17.64492
G1 X34.5 Y71.083 E17.66569
G1 X34.029 Y70.842 E17.67915
G1 X33.559 Y70.583 E17.69281
G1 X33.009 Y70.234 E17.70938
G1 X32.443 Y69.761 E17.72815
G1 X32.078 Y69.41 E17.74103
G1 X31.638 Y68.931 E17.75758
G1 X31.204 Y68.33 E17.77644
G1 X30.797 Y67.627 E17.79711
G1 X30.506 Y67.045 E17.81367
G1 X30.215 Y66.145 E17.83774
G1 X30.062 Y65.47 E17.85535
G1 X29.938 Y64.709 E17.87496
G1 X29.912 Y63.305 E17.91069
G1 X29.912 Y28.587 E18.79406
G1 X29.921 Y27.919 E18.81106
G1 X29.981 Y27.127 E18.83127
G1 X30.277 Y25.856 E18.86447
G1 X30.481 Y25.238 E18.88103
G1 X30.839 Y24.467 E18.90266
G1 X31.306 Y23.71 E18.92529
M204 S3000
M205 X10 Y10
G1 F1800 E11.92529
;MESH:Bottom DEF.stl
G0 F7800 X34.918 Y27.724
G0 X35.958 Y28.027
G0 X36.66 Y32.015
M204 S1500
M205 X12 Y12
;TYPE:WALL-INNER
G1 F1800 E18.92529
G1 F1090.9 X36.602 Y32.896 E18.96236
G1 F1148.9 X36.61 Y33.081 E18.96974
M204 S3000
M205 X10 Y10
G0 F7800 X36.66 Y58.515
M204 S1500
M205 X12 Y12
G1 F1090.9 X36.602 Y59.396 E19.0068
G1 F1148.9 X36.61 Y59.581 E19.01419
M204 S3000
M205 X10 Y10
G1 F1800 E12.01419
G1 F480 Z0.175
G0 F7800 X67.488 Y54.048 Z0.175
M204 S1500
M205 X12 Y12
G1 F480 Z0.1
G1 F1800 E19.01419
G1 X67.026 Y54.05 E19.02594
G1 X65.955 Y53.694 E19.05466
G1 X65.469 Y53.224 E19.07186
G1 X65.084 Y52.988 E19.08335
G1 X64.819 Y52.692 E19.09346
G1 X64.408 Y51.992 E19.11411
G1 X64.252 Y51.495 E19.12737
G1 X64.273 Y50.98 E19.14048
G1 X63.496 Y50.928 E19.1603
G1 X62.645 Y50.659 E19.183
G1 X62.233 Y50.335 E19.19634
G1 X61.946 Y49.905 E19.20949
G1 X61.846 Y49.566 E19.21849
G1 X61.594 Y49.158 E19.23069
G1 X61.453 Y48.437 E19.24938
G1 X61.553 Y47.973 E19.26146
G1 X60.851 Y47.802 E19.27984
G1 X60.466 Y47.567 E19.29132
G1 X60.072 Y47.177 E19.30543
G1 X59.766 Y46.918 E19.31563
G1 X59.498 Y46.491 E19.32845
G1 X59.138 Y46.088 E19.3422
G1 X58.932 Y45.61 E19.35545
G1 X58.893 Y44.791 E19.37631
G1 X58.988 Y44.321 E19.38851
G1 X59.243 Y43.886 E19.40134
G1 X59.523 Y43.6 E19.41152
G1 X59.683 Y43.3 E19.42017
G1 X60.094 Y42.897 E19.43482
G1 X60.597 Y42.377 E19.45323
G1 X61.795 Y41.313 E19.494
G1 X62.253 Y40.777 E19.51193
G1 X62.925 Y40.198 E19.5345
G1 X64.649 Y38.672 E19.59308
G1 X65.007 Y38.444 E19.60388
G1 X65.982 Y37.703 E19.63504
G1 X66.865 Y37.358 E19.65916
G1 X67.629 Y37.353 E19.6786
G1 X68.242 Y37.168 E19.6949
G1 X69.14 Y37.294 E19.71797
G1 X69.596 Y37.49 E19.7306
G1 X69.95 Y37.813 E19.74279
G1 X70.241 Y37.951 E19.75099
G1 X70.712 Y38.427 E19.76802
G1 X71.187 Y38.825 E19.78379
G1 X71.474 Y39.444 E19.80115
G1 X71.494 Y39.929 E19.8135
G1 X71.326 Y40.658 E19.83254
G1 X71.152 Y40.939 E19.84095
G1 X70.645 Y41.356 E19.85765
G1 X71.302 Y41.43 E19.87447
G1 X71.704 Y41.635 E19.88595
G1 X72.587 Y41.856 E19.90911
G1 X73.101 Y42.335 E19.92699
G1 X73.289 Y42.675 E19.93688
G1 X73.392 Y43.212 E19.95079
G1 X73.34 Y43.711 E19.96355
G1 X73.214 Y44.075 E19.97335
G1 X72.98 Y44.396 E19.98346
G1 X73.468 Y44.637 E19.99731
G1 X74.198 Y44.729 E20.01603
G1 X74.812 Y44.995 E20.03306
G1 X75.085 Y45.21 E20.0419
G1 X75.454 Y45.817 E20.05997
G1 X75.524 Y46.269 E20.07161
G1 X75.432 Y46.931 E20.08862
G1 X75.287 Y47.247 E20.09746
G1 X74.764 Y47.853 E20.11783
G1 X73.686 Y48.447 E20.14915
G1 X73.388 Y48.666 E20.15856
G1 X72.698 Y49.132 E20.17974
G1 X72.571 Y49.281 E20.18472
G1 X72.128 Y49.685 E20.19998
G1 X70.836 Y51.149 E20.24966
G1 X70.214 Y51.942 E20.2753
G1 X70.088 Y52.34 E20.28593
G1 X69.818 Y52.728 E20.29795
G1 X69.227 Y53.106 E20.3158
G1 X68.765 Y53.215 E20.32788
G1 X68.64 Y53.399 E20.33354
G1 X67.992 Y53.917 E20.35465
G1 X67.488 Y54.048 E20.3679
M204 S3000
M205 X10 Y10
G0 F7800 X69.448 Y52.386
G0 X74.802 Y46.85
G0 X74.924 Y46.27
M204 S1500
M205 X12 Y12
G1 F1800 X74.886 Y46.651 E20.37764
G1 X74.715 Y47.022 E20.38804
G1 X74.319 Y47.414 E20.40221
G1 X73.362 Y47.941 E20.43001
G1 X73.003 Y48.203 E20.44132
G1 X72.309 Y48.67 E20.4626
G1 X72.167 Y48.837 E20.46818
G1 X71.701 Y49.262 E20.48423
G1 X70.374 Y50.766 E20.53526
G1 X69.995 Y51.249 E20.55088
G1 X69.668 Y51.622 E20.5635
G1 X69.469 Y52.212 E20.57935
G1 X69.132 Y52.522 E20.591
G1 X68.41 Y52.676 E20.60978
G1 X68.228 Y52.953 E20.61821
G1 X67.804 Y53.301 E20.63217
G1 X67.41 Y53.453 E20.64292
G1 X66.958 Y53.397 E20.65451
G1 X66.777 Y53.282 E20.65996
G1 X66.47 Y53.234 E20.66787
G1 X66.168 Y53.079 E20.6765
G1 X65.854 Y52.721 E20.68862
G1 X65.396 Y52.493 E20.70164
G1 X64.941 Y51.715 E20.72457
G1 X64.823 Y51.341 E20.73455
G1 X64.95 Y50.602 E20.75363
G1 X65.076 Y50.31 E20.76172
G1 X63.92 Y50.397 E20.79122
G1 X62.86 Y50.107 E20.81918
G1 X62.538 Y49.748 E20.83145
G1 X62.407 Y49.275 E20.84394
G1 X62.091 Y48.769 E20.85912
G1 X62.052 Y48.464 E20.86694
G1 X62.171 Y48.075 E20.87729
G1 X62.282 Y47.317 E20.89678
G1 X61.721 Y47.412 E20.91126
G1 X61.027 Y47.212 E20.92964
G1 X60.321 Y46.661 E20.95242
G1 X60.009 Y46.102 E20.96871
G1 X59.62 Y45.722 E20.98255
G1 X59.526 Y45.42 E20.9906
G1 X59.492 Y44.815 E21.00601
G1 X59.574 Y44.474 E21.01494
G1 X60.053 Y43.894 E21.03408
G1 X60.157 Y43.67 E21.04036
G1 X60.495 Y43.346 E21.05227
G1 X60.936 Y42.882 E21.06856
G1 X62.217 Y41.74 E21.11223
G1 X62.68 Y41.199 E21.13034
G1 X63.318 Y40.652 E21.15173
G1 X65.108 Y39.072 E21.21248
G1 X65.332 Y38.951 E21.21895
G1 X66.278 Y38.232 E21.24919
G1 X66.973 Y37.956 E21.26821
G1 X67.796 Y37.954 E21.28916
G1 X68.269 Y37.778 E21.302
G1 X69.119 Y37.893 E21.32382
G1 X69.581 Y38.331 E21.34002
G1 X69.921 Y38.458 E21.34925
G1 X70.271 Y38.898 E21.36356
G1 X70.586 Y39.061 E21.37258
G1 X70.837 Y39.406 E21.38344
G1 X70.903 Y39.689 E21.39083
G1 X70.852 Y40.202 E21.40395
G1 X70.632 Y40.671 E21.41713
G1 X69.879 Y41.098 E21.43916
G1 X69.26 Y41.547 E21.45861
G1 X69.739 Y42.023 E21.4758
G1 X69.95 Y41.956 E21.48143
G1 X71.048 Y41.956 E21.50937
G1 X71.438 Y42.209 E21.52119
G1 X72.184 Y42.372 E21.54062
G1 X72.502 Y42.561 E21.55004
G1 X72.689 Y42.804 E21.55784
G1 X72.792 Y43.217 E21.56867
G1 X72.683 Y43.797 E21.58368
G1 X72.474 Y44.088 E21.5928
G1 X71.489 Y44.714 E21.62249
G1 X72.504 Y44.831 E21.64849
G1 X73.3 Y45.221 E21.67105
G1 X74.071 Y45.316 E21.69081
G1 X74.667 Y45.641 E21.70808
G1 X74.852 Y45.917 E21.71654
G1 X74.924 Y46.27 E21.7257
M204 S3000
M205 X10 Y10
G1 F1800 E14.7257
G1 F480 Z0.175
G0 F7800 X75.217 Y46.308 Z0.175
G0 X82.237 Y54.803
M204 S1500
M205 X12 Y12
G1 F480 Z0.1
G1 F1800 E21.7257
G1 X81.869 Y54.425 E21.73913
G1 X81.638 Y53.864 E21.75456
G1 X81.693 Y53.097 E21.77413
G1 X81.905 Y52.677 E21.7861
G1 X81.668 Y52.245 E21.79864
G1 X81.56 Y51.786 E21.81064
G1 X81.591 Y51.35 E21.82176
G1 X81.831 Y50.809 E21.83682
G1 X82.055 Y50.558 E21.84538
G1 X82.557 Y50.24 E21.8605
G1 X83.319 Y50.131 E21.88008
G1 X83.842 Y50.19 E21.89347
G1 X84.191 Y50.133 E21.90247
G1 X84.906 Y50.159 E21.92068
G1 X85.141 Y50.132 E21.92669
G1 X85.65 Y50.136 E21.93965
G1 X86.125 Y50.253 E21.95209
G1 X86.418 Y50.44 E21.96094
G1 X86.704 Y50.149 E21.97132
G1 X87.595 Y49.68 E21.99694
G1 X87.976 Y49.598 E22.00685
G1 X89.036 Y49.579 E22.03383
G1 X89.425 Y49.654 E22.04391
G1 X90.277 Y50.051 E22.06783
G1 X90.583 Y50.288 E22.07767
G1 X91.4 Y51.321 E22.11118
G1 X91.614 Y52.345 E22.1378
G1 X91.614 Y52.863 E22.15098
G1 X91.382 Y53.767 E22.17473
G1 X91.132 Y54.288 E22.18943
G1 X90.49 Y55.021 E22.21422
G1 X89.775 Y55.441 E22.23532
G1 X88.829 Y55.664 E22.26005
G1 X87.93 Y55.643 E22.28293
G1 X86.772 Y55.101 E22.31547
G1 X86.641 Y54.983 E22.31995
G1 X86.063 Y55.128 E22.33511
G1 X84.521 Y55.125 E22.37435
G1 X83.836 Y55.082 E22.39181
G1 X83.464 Y55.143 E22.4014
G1 X82.709 Y55.029 E22.42083
G1 X82.237 Y54.803 E22.43415
M204 S3000
M205 X10 Y10
G0 F7800 X82.417 Y54.157
M204 S1500
M205 X12 Y12
G1 F1800 X82.269 Y53.9 E22.44169
G1 X82.217 Y53.481 E22.45244
G1 X82.311 Y53.171 E22.46068
G1 X82.602 Y52.677 E22.47527
G1 X82.236 Y52.059 E22.49354
G1 X82.157 Y51.619 E22.50491
G1 X82.239 Y51.296 E22.51339
G1 X82.526 Y50.947 E22.52489
G1 X82.814 Y50.799 E22.53313
G1 X83.465 Y50.728 E22.54979
G1 X83.839 Y50.851 E22.55981
G1 X84.212 Y50.732 E22.56977
G1 X84.906 Y50.777 E22.58747
G1 X85.603 Y50.734 E22.60523
G1 X86.128 Y50.957 E22.61975
G1 X86.393 Y51.482 E22.63471
G1 X86.944 Y50.701 E22.65903
G1 X87.881 Y50.206 E22.68599
G1 X89.12 Y50.175 E22.71753
G1 X90.082 Y50.621 E22.74451
G1 X90.842 Y51.584 E22.77572
G1 X91.059 Y52.62 E22.80266
G1 X90.754 Y53.799 E22.83364
G1 X90.101 Y54.557 E22.8591
G1 X89.554 Y54.877 E22.87522
G1 X88.717 Y55.07 E22.89708
G1 X88.064 Y55.044 E22.91371
G1 X87.084 Y54.586 E22.94123
G1 X86.686 Y54.161 E22.95604
G1 X86.588 Y54.337 E22.96117
G1 X86.24 Y54.529 E22.97128
G1 X84.578 Y54.522 E23.01357
G1 X83.836 Y54.436 E23.03258
G1 X83.482 Y54.537 E23.04194
G1 X82.746 Y54.434 E23.06085
G1 X82.417 Y54.157 E23.0718
M204 S3000
M205 X10 Y10
G1 F1800 E16.0718
G1 F480 Z0.175
G0 F7800 X82.148 Y54.259 Z0.175
G0 X80.034 Y65.519
M204 S1500
M205 X12 Y12
G1 F480 Z0.1
G1 F1800 E23.0718
G1 X80.346 Y65.072 E23.08567
G1 X80.636 Y64.848 E23.09499
G1 X81.256 Y64.64 E23.11163
G1 X94.611 Y64.632 E23.45143
G1 X94.945 Y64.438 E23.46126
